packages/sources/icons/src/vitamix/thumb-up-line.svg

<svg width="16" height="16" viewBox="0 0 16 16" xmlns="http://www.w3.org/2000/svg"><path d="M9.73865 5.33892H14.0063C14.36 5.33892 14.6992 5.47943 14.9493 5.72953C15.1994 5.97964 15.3399 6.31885 15.3399 6.67256V8.07554C15.3401 8.24982 15.3061 8.42245 15.2399 8.58366L13.1761 13.5948C13.1258 13.717 13.0402 13.8214 12.9304 13.8949C12.8206 13.9684 12.6914 14.0076 12.5593 14.0076H1.33674C1.15989 14.0076 0.990281 13.9373 0.865228 13.8123C0.740176 13.6872 0.669922 13.5176 0.669922 13.3407V6.67256C0.669922 6.49571 0.740176 6.3261 0.865228 6.20105C0.990281 6.07599 1.15989 6.00574 1.33674 6.00574H3.6586C3.76536 6.00577 3.87056 5.98016 3.96536 5.93108C4.06016 5.88199 4.14179 5.81087 4.20339 5.72367L7.83955 0.571172C7.88552 0.506032 7.9533 0.45952 8.03062 0.440069C8.10793 0.420617 8.18966 0.429515 8.26098 0.465147L9.47059 1.06995C9.811 1.2401 10.0829 1.5216 10.2413 1.86768C10.3996 2.21376 10.4347 2.60358 10.3408 2.97238L9.73865 5.33892ZM4.67083 7.06465V12.6739H12.1125L14.0063 8.07554V6.67256H9.73865C9.53553 6.67253 9.33511 6.62611 9.15267 6.53683C8.97023 6.44756 8.81059 6.31779 8.68593 6.15743C8.56127 5.99707 8.47488 5.81036 8.43336 5.61153C8.39184 5.41271 8.39629 5.20703 8.44635 5.01018L9.04849 2.64431C9.06734 2.57051 9.06035 2.49248 9.02868 2.42321C8.99702 2.35394 8.94259 2.2976 8.87445 2.26356L8.43369 2.04351L5.29297 6.49252C5.12627 6.72857 4.91289 6.92195 4.67083 7.06465ZM3.33719 7.33938H2.00356V12.6739H3.33719V7.33938Z"/></svg>

<svg width="16" height="16" xmlns="http://www.w3.org/2000/svg"><path d="M9.739 5.339h4.267a1.334 1.334 0 0 1 1.334 1.334v1.403c0 .174-.034.346-.1.508l-2.064 5.01a.667.667 0 0 1-.617.414H1.337a.667.667 0 0 1-.667-.667V6.673a.667.667 0 0 1 .667-.667h2.322a.667.667 0 0 0 .544-.282L7.84.57A.333.333 0 0 1 8.26.465l1.21.605a1.668 1.668 0 0 1 .87 1.902L9.739 5.34ZM4.67 7.065v5.609h7.442l1.893-4.598V6.673H9.74A1.334 1.334 0 0 1 8.446 5.01l.602-2.366a.333.333 0 0 0-.174-.38l-.44-.22-3.141 4.449c-.167.236-.38.429-.622.572Zm-1.334.274H2.004v5.335h1.333V7.339Z"/></svg>
